X: 1829
T: How Is Your Mother?
M:6/8
L:1/8
B:O'Neill's 1829
Z:"Transcribed by Bob Safranek, rjs@gsp.org"
K:D
   A | d2 d f2 f | a2 a f2 d | g2 e f2 d | cde ABc  |
       d2 d f2 f | a2 a f2 d | g2 e f2 d | ABc d2  :|
|: A | F2 A E2 A | F2 A d2 c | B2 d A2 d | cde A2 G |
       F2 A E2 A | F2 A d2 c | Bed  cBc  | d3  d2  :|


